X: 1
T: l'Accroche pied
T: the Foot Hook
C:
R: reel
Z: 2019 John Chambers <jc:trillian.mit.edu>
S: Du répertoire du violoneux gaucher Yvon Mimeault qui l'aurait lui-même apprise de son père.
M: C|
L: 1/8
K: G
G3B d2g2 |:\
G3B dBc{B}A | BAGB dgdg |\
[1 ga{b}af gage | dBGB d2g2 :|
[2 fa{b}af gage | dBGA BABd |]\
e2ee dfed | ceAe dBGB |\
eefe defd |
ggge dBGB |\
e3e dfed | cAA{B}c dBGB |\
e2 (3efe defd | ggge dcBA |]
